X:1
T:Title
%%score { ( 1 3 ) | 2 }
L:1/8
M:6/8
K:Eb
V:1 treble nm="Grand Piano"
V:3 treble 
V:2 bass 
V:1
 z3 z2[Q:1/4=100] E | E2 F G2 A | B2 B B2 [GB] | [Ge]2 [Ge] [GB]2 [EG] |[M:5/8] [DF]-[DF]- [DF]3 | %5
[M:1/8] E |[M:3/4] E2 F G2 A | B2 B B2 G | F2 [Ec] [DB]2 [B,D] |[M:5/8] [B,E]-[B,E]- [B,E]3 | %10
[M:1/8] [GB] |[M:3/4] [Ge]2 [EG] [_Gd]2 [Gc] | [GB]6 | d2 F d2 c |[M:5/8] [DB]-[DB]- [DB]3 | %15
[M:1/8] E |[M:3/4] E2 F G2 A | B2 B B2 G | F2 [Ec] [DB]2 D |[M:5/8] E-E- E3 |] %20
V:2
 z3 z2 [E,G,B,] | [E,G,B,]2 [E,A,B,] [E,B,E]2 [E,B,F] | [E,G,E]2 [F,A,D] [G,B,E]2 [E,E] | %3
 [E,B,]2 [E,B,] [E,E]2 [E,B,] |[M:5/8] [B,,B,]-[B,,B,]- [B,,B,]3 |[M:1/8] [E,G,B,] | %6
[M:3/4] [E,G,B,]2 [E,A,B,] [E,B,E]2 [E,B,F] | [E,G,E]2 [F,A,D] [G,B,E]2 [E,B,E] | %8
 [A,CE]2 [A,,A,] [B,,F,]2 [B,,A,] |[M:5/8] [E,G,]-[E,G,]- [E,G,]3 |[M:1/8] [E,E] | %11
[M:3/4] [E,B,]2 [E,B,] [E,=A,]2 [E,A,] | [E,B,]2 E, E,2 [E,B,] | %13
 [F,B,F]2 [F,B,D] [F,=A,F]2 [F,A,E] |[M:5/8] [B,,B,]-[B,,B,]- [B,,B,]3 |[M:1/8] [E,G,B,] | %16
[M:3/4] [E,G,B,]2 [E,A,B,] [E,B,E]2 [E,B,F] | [E,G,E]2 [F,A,D] [G,B,E]2 [E,B,E] | %18
 [A,CE]2 [A,,A,] [B,,F,]2 [B,,A,B,] |[M:5/8] [E,G,B,]-[E,G,B,]- [E,G,B,]3 |] %20
V:3
 x6 | x6 | x6 | x6 |[M:5/8] x5 |[M:1/8] x |[M:3/4] x6 | x6 | x6 |[M:5/8] x5 |[M:1/8] x | %11
[M:3/4] x6 | z2 B, B,2 [Ge] | x6 |[M:5/8] x5 |[M:1/8] x |[M:3/4] x6 | x6 | x6 |[M:5/8] x5 |] %20

